svg/dance_pole.svg

<svg xmlns="http://www.w3.org/2000/svg" viewBox="0 0 24 24"><path d="M12 1v1l-.77-.64L7.76 5.5l3.24 2V5.16L10.78 5 12 3.56V23h2v-9.76l1.93-1.93c2.57.4 5.2-.95 6.73-2.48l-1.42-1.42C20.1 8.56 17.7 9.61 16 9.26l-2-2.02V1m3 3a2 2 0 0 0-2 2 2 2 0 0 0 2 2 2 2 0 0 0 2-2 2 2 0 0 0-2-2m-6 3.76-3.9 3.9c-1.85 1.84-2.79 3.19-4.04 6.5l1.88.7c1-2.66 1.72-3.72 2.93-5.02l1.35 1.35-4.95 4.95 1.42 1.42L11 16.24Z"/></svg>

<?xml version="1.0" encoding="UTF-8"?><!DOCTYPE svg PUBLIC "-//W3C//DTD SVG 1.1//EN" "http://www.w3.org/Graphics/SVG/1.1/DTD/svg11.dtd"><svg xmlns="http://www.w3.org/2000/svg" xmlns:xlink="http://www.w3.org/1999/xlink" version="1.1" id="mdi-dance-pole" width="24" height="24" viewBox="0 0 24 24"><path d="M12 1V2L11.23 1.36L7.76 5.5L11 7.5V5.16L10.78 5L12 3.56V23H14V13.24L15.93 11.31C18.5 11.71 21.13 10.36 22.66 8.83L21.24 7.41C20.1 8.56 17.7 9.61 16 9.26L14 7.24V1M17 4A2 2 0 0 0 15 6A2 2 0 0 0 17 8A2 2 0 0 0 19 6A2 2 0 0 0 17 4M11 7.76L7.1 11.66C5.25 13.5 4.31 14.85 3.06 18.16L4.94 18.86C5.94 16.2 6.66 15.14 7.87 13.84L9.22 15.19L4.27 20.14L5.69 21.56L11 16.24Z" /></svg>
